X: 143111
T: MANCHESTER HORNPIPE
R:  Hornpipe.
%R: hornpipe
B: James Kerr "Merry Melodies" v.1 p.43 s.1 #11
Z: 2016 John Chambers <jc:trillian.mit.edu>
M: C
L: 1/8
K: D
(3(uABc) |\
d>cd>A F>Ad>f | e>dc>B A2g2 |\
f>ga>f b>ge>c | d>cd>f e>c (3(ABc) |\
d>cd>A F>Ad>f | e>dc>B A2g2 |\
f>ga>f b>ge>c | d2f2d2 :|
|: (fg) |\
a>fa>f d>fa>f | b>gb>g e>fg>e |\
a>fa>f b>ag>f | e>dc>B A>gf>e |\
d>cd>A F>Ad>f | e>dc>B A>ce>g |\
f>ga>f b>ge>c | d2f2d2 H:|

%%sep 1 1 500
%%sep 1 1 500

